svgs/thin/turkey.svg

<svg xmlns="http://www.w3.org/2000/svg" viewBox="0 0 640 512"><!--! Font Awesome Pro 6.0.0-alpha3 by @fontawesome - https://fontawesome.com License - https://fontawesome.com/license (Commercial License) --><path d="M507.3 226.7c-3.578 2.594-4.391 7.594-1.797 11.16c34.63 47.85 54.48 99.98 54.48 143.1c0 96.26-99.74 115.1-272 115.1C115.7 495.1 16 477.2 16 380.9c0-106.2 121.9-268.1 272-268.1c20.42 0 41.19 3.125 61.7 9.314c4.266 1.375 8.719-1.094 9.969-5.346c1.281-4.25-1.125-8.688-5.344-9.969c-94.94-28.53-193.7 5.938-270.2 89.66C32.23 252.4 0 323.4 0 380.9C0 501.9 142.3 512 288 512c145.7 0 288-10.13 288-131.1c0-46.38-20.97-101.9-57.52-152.4C515.9 224.9 510.9 224.1 507.3 226.7zM619.8 91.06c-11.44-9.846-26.16-15.66-40.33-14.56c4.922-13.91 4.219-29.1-2.391-42.88c-9.438-19.69-29.27-32.56-51.75-33.6c-18.64-.5-36.55 6.844-48.64 21.19c-11.64 13.81-16.14 31.69-12.31 49.13c2.5 11.19-.1562 20.91-8.375 30.53c-11.62 13.59-33.8 26.1-62.44 35.22c-33.72 10.69-53.89 11.38-71.69 11.97C305.6 148.6 290.2 149.1 268.9 157C231.4 170.6 205.5 198.4 195.8 235.3c-9.719 37.16-.4375 78.01 24.17 106.6c23.08 27.06 56.96 42.16 92.35 42.16c8.391 0 16.88-.8438 25.31-2.594c43.78-9.033 78.05-40.79 91.67-85.01c3.312-10.78 17.27-42.5 39.27-71.69c11.17-14.85 22.42-26.31 33.42-34.13c16.67-11.78 31.38-14.16 45.02-7.062c21.31 10.66 45.67 11.56 63.72 2.312c10.86-5.562 24.62-17.41 28.55-42.13C642.4 123.9 635.1 104.3 619.8 91.06zM623.5 141.2c-2.297 14.53-9.047 24.75-20.05 30.41c-13.58 6.938-32.42 6.031-49.13-2.344c-19.12-9.939-39.78-7.158-61.55 8.25c-12.36 8.781-24.78 21.41-36.96 37.56c-23.27 30.88-38.19 64.97-41.77 76.63c-12.06 39.1-41.08 66.07-79.61 74.04c-38.33 7.781-77.49-5.25-102.3-34.31C210.9 306.8 202.9 271.5 211.3 239.4c8.266-31.63 30.66-55.54 63.08-67.29c18.98-7.033 32.47-7.471 48.08-8.002c18.83-.625 40.17-1.344 75.99-12.72c31.45-10 56.22-24.25 69.75-40.1c11.46-13.38 15.42-28.31 11.85-44.38c-2.736-12.5 .5156-25.38 8.922-35.35c8.406-9.969 20.53-15.56 33.53-15.56c.7031 0 1.422 .0313 2.141 .0625c16.84 .75 31.08 9.938 38.06 24.5c6.516 13.62 4.969 29.19-4.141 41.66c-2.047 2.781-2.062 6.562-.0469 9.377c2.016 2.781 5.625 4.062 8.891 2.969c14.73-4.564 30.39-1.344 41.99 8.656C620.6 112.9 625.8 126.8 623.5 141.2z"/></svg>

<svg xmlns="http://www.w3.org/2000/svg" viewBox="0 0 640 512"><!-- Font Awesome Pro 6.0.0-alpha2 by @fontawesome - https://fontawesome.com License - https://fontawesome.com/license (Commercial License) --><path d="M507.322 226.697C503.744 229.291 502.932 234.291 505.525 237.854C540.15 285.701 560.01 337.83 560.01 380.928C560.01 477.184 460.273 495.998 288.006 495.998C115.736 495.998 16 477.184 16 380.928C16 274.732 137.861 111.969 288.006 111.969C308.428 111.969 329.193 115.094 349.709 121.283C353.975 122.658 358.428 120.189 359.678 115.938C360.959 111.688 358.553 107.25 354.334 105.969C259.395 77.436 160.598 111.906 84.111 195.633C32.234 252.387 0 323.391 0 380.928C0 501.873 142.283 512 288.006 512C433.727 512 576.01 501.873 576.01 380.928C576.01 334.549 555.041 278.982 518.494 228.479C515.885 224.885 510.869 224.072 507.322 226.697ZM619.84 91.062C608.402 81.217 593.684 75.404 579.51 76.498C584.432 62.59 583.729 47.402 577.119 33.619C567.682 13.932 547.854 1.055 525.369 0.023C506.729 -0.477 488.822 6.867 476.727 21.213C465.086 35.025 460.586 52.902 464.414 70.342C466.914 81.529 464.258 91.25 456.039 100.875C444.414 114.469 422.242 126.971 393.602 136.096C359.881 146.785 339.709 147.473 321.912 148.066C305.631 148.629 290.24 149.129 268.865 157.035C231.395 170.631 205.457 198.445 195.816 235.291C186.098 272.451 195.379 313.297 219.988 341.861C243.066 368.926 276.943 384.021 312.334 384.021C320.725 384.021 329.209 383.178 337.646 381.428C381.43 372.395 415.695 340.643 429.32 296.42C432.633 285.639 446.586 253.918 468.586 224.729C479.76 209.883 491.01 198.414 502.01 190.6C518.682 178.818 533.385 176.443 547.025 183.537C568.338 194.193 592.699 195.102 610.746 185.85C621.605 180.287 635.371 168.441 639.293 143.723C642.402 123.939 635.137 104.25 619.84 91.062ZM623.48 141.221C621.184 155.754 614.434 165.973 603.434 171.631C589.855 178.568 571.01 177.662 554.307 169.287C535.182 159.348 514.525 162.129 492.76 177.537C480.4 186.318 467.977 198.945 455.805 215.102C432.539 245.979 417.617 280.076 414.039 291.732C401.977 330.83 372.961 357.801 334.428 365.77C296.1 373.551 256.941 360.52 232.145 331.455C210.879 306.766 202.895 271.48 211.301 239.354C219.566 207.727 241.957 183.818 274.381 172.068C293.365 165.035 306.85 164.598 322.459 164.066C341.287 163.441 362.631 162.723 398.445 151.348C429.898 141.346 454.664 127.096 468.195 111.25C479.65 97.875 483.619 82.936 480.041 66.873C477.305 54.371 480.557 41.496 488.963 31.525C497.369 21.557 509.494 15.963 522.494 15.963C523.197 15.963 523.916 15.994 524.635 16.025C541.479 16.775 555.713 25.963 562.697 40.527C569.213 54.152 567.666 69.717 558.557 82.186C556.51 84.967 556.494 88.748 558.51 91.562C560.525 94.344 564.135 95.625 567.4 94.531C582.135 89.967 597.793 93.187 609.387 103.187C620.621 112.875 625.762 126.752 623.48 141.221Z"/></svg>
